!!!COM:	la Rue, Pierre de
!!!CDT:	~1452///-1518/11/20
!!!OPR:	Missa De virginibus
!!!ONM:	4
!!!OTL:	Sanctus
!!!AGN:	Mass; Sanctus
!!!SCT:	Rue1015d
!!!SCA:	Rue1015d
!!!voices:	4
!!!voices-OPR:	4
**kern	**kern	**kern	**kern
*staff4	*staff3	*staff2	*staff1
*Ivox	*Ivox	*Ivox	*Ivox
*I"Bassus	*I"Tenor	*I"Contra	*I"Discantus
*I'B	*I'T	*I'C	*I'D
*>[A,B,C,D,E,C]	*>[A,B,C,D,E,C]	*>[A,B,C,D,E,C]	*>[A,B,C,D,E,C]
*>A	*>A	*>A	*>A
*clefF4	*clefGv2	*clefGv2	*clefG2
*k[]	*k[]	*k[]	*k[]
*M3/1	*M3/1	*M3/1	*M3/1
*met(O)	*met(O)	*met(O)	*met(O)
!!section: Sanctus
!!!OMD: Sanctus
=1-	=1-	=1-	=1-
1.F	0.r	0f	0.r
2E\	.	.	.
1D	.	2.f\	.
.	.	4g\	.
=2	=2	=2	=2
0C	1.c	0e	0cc
.	2B\	.	.
1r	1A	1r	2.cc\
.	.	.	4dd\
=3	=3	=3	=3
0G	0G	1g	0b
.	.	4g\	.
.	.	4f\	.
.	.	4e\	.
.	.	4d\	.
1C	1r	1e	1r
=4	=4	=4	=4
2.G\	0d	2d\	1dd
.	.	2.g\	.
4A\	.	.	.
4B-i\	.	.	4dd\
4A\	.	4f\	4cc\
4G\	.	1f	4b\
4F\	.	.	4a/
1G	1G	.	1b
.	.	2e\	.
=5	=5	=5	=5
2F\	2.d\	1f	2a/
1B-	.	.	1dd
.	4e\	.	.
.	4f\	1r	.
.	4e\	.	.
2A\	4d\	.	1cc
.	4c\	.	.
1G	1d	1r	.
.	.	.	2b\
=6	=6	=6	=6
2C/	1c	2r	1cc
2F\	.	2.f\	.
4F\	1r	.	1r
4G\	.	4e\	.
4A\	.	4f\	.
4B-i\	.	4d\	.
2G\	1r	2e\	1r
2F\	.	2f\	.
=7	=7	=7	=7
1c	2r	2g\	2r
.	2.c\	2.a\	2.cc\
1A	.	.	.
.	4d\	4g\	4b\
.	4e\	4a\	4cc\
.	4c\	4f\	4a/
2G\	2d\	2g\	2b\
2c\	2e\	2c\	2cc\
=8	=8	=8	=8
2B\	2d\	1g	2dd\
2c\	2.c\	.	2.ee\
1A	.	1r	.
.	4B\	.	4dd\
.	4c\	.	4ee\
.	4A/	.	4cc\
1G	[1B	2r	2dd\
.	.	[2g\	2g/
=9	=9	=9	=9
2r	1B]	2g\]	1dd
1G	.	2g\	.
.	2d\	0g	2r
2G\	2B\	.	1dd
[1G	4d\	.	.
.	4c\	.	.
.	4B\	.	2dd\
.	4A/	.	.
=10	=10	=10	=10
1G]	1B	1g	1dd
2.C/	0c	2.e\	1ee
4D\	.	4f\	.
2E\	.	2g\	2ee\
[2F\	.	[2a\	[2cc\
=11	=11	=11	=11
2F\]	1c	2a\]	2cc\]
2E\	.	2g\	2cc\
1D	1r	2a\	2dd\
.	.	2f\	2.ff\
1C	2r	1g	.
.	.	.	4ee\
.	[2c\	.	2ee\
=12	=12	=12	=12
0F	2c\]	0f	2.ff\
.	2c\	.	.
.	.	.	4ee\
.	2d\	.	2dd\
.	1f	.	2cc\
1G	.	1r	1b-i
.	2e\	.	.
=13	=13	=13	=13
0F	0f	2r	0a
.	.	1c	.
.	.	2c\	.
1BB-	1f	1d	1b-
=14	=14	=14	=14
0F	2r	2c\	0a
.	1c	1A	.
.	2c\	2A/	.
1BB-i	1d	1B-	1f
=15	=15	=15	=15
1C	1c	1G	2e/
.	.	.	2.cc\
2r	0A	1F	.
.	.	.	4b\
2.F\	.	.	4a/
.	.	.	4g/
.	.	1r	2f/
4E\	.	.	.
4D\	.	.	2e/
4C/	.	.	.
=16	=16	=16	=16
0BB-	0B-	1.f	1d
.	.	.	1d
.	.	4e\	.
.	.	4d\	.
1C	1G	4c\	1e
.	.	4d\	.
.	.	4e\	.
.	.	4f\	.
=17	=17	=17	=17
1C	2r	2g\	2r
.	2G/	2c\	2e/
1r	2A/	1c	2f/
.	2.c\	.	2.a/
1r	.	1r	.
.	4A/	.	4f/
.	4B\	.	4g/
.	4c\	.	4a/
=18	=18	=18	=18
2r	2A/	1r	2f/
2C/	2G/	.	2e/
1C	2r	2r	2r
.	2G/	2c\	2e/
1r	2A/	1c	2f/
.	[2c\	.	[2a/
=19	=19	=19	=19
1r	4c\]	1r	4a/]
.	4A/	.	4f/
.	4B\	.	4g/
.	4c\	.	4a/
2r	2A/	2r	2f/
2C/	2G/	2e\	2e/
2D\	2r	2.f\	1a
[2F\	2A/	.	.
.	.	4e\	.
=20	=20	=20	=20
2F\]	2F/	4d\	2a/
.	.	4c\	.
2E\	2G/	1c	1g
1D	2A/	.	.
.	2F/	2B\	2.f/
1C	1G	[1cl	.
.	.	.	4e/
.	.	.	2e/
=21	=21	=21	=21
0.Fl	0.Fl	0.c]	0.fl
!!LO:LB:i:g=z
=22||	=22||	=22||	=22||
*>B	*>B	*>B	*>B
*clefF4	*clefGv2	*clefGv2	*clefG2
*k[]	*k[]	*k[]	*k[]
*M2/1	*M2/1	*M2/1	*M2/1
*met(C2)	*met(C2)	*met(C2)	*met(C2)
!!section: Pleni sunt celi
!!!OMD: Pleni sunt celi
0r	0r	1f	0r
.	.	2f\	.
.	.	[2e\	.
=23.	=23.	=23.	=23.
1r	0r	2e\]	0r
.	.	4d\	.
.	.	4c\	.
1F	.	2d\	.
.	.	[2c\	.
=24	=24	=24	=24
2F\	0r	2c\]	0r
1E	.	1g	.
4D\	.	4f\	.
4C/	.	4e\	.
=25.	=25.	=25.	=25.
2D\	0r	2f\	0r
1C	.	2g\	.
.	.	1e	.
[2G\	.	.	.
=26	=26	=26	=26
2G\]	0r	1d	0r
4F\	.	.	.
4E\	.	.	.
2F\	.	2r	.
2G\	.	[2g\	.
=27.	=27.	=27.	=27.
1E	0r	2g\]	0r
.	.	4f\	.
.	.	4e\	.
2D\	.	2f\	.
[2G\	.	2g\	.
=28	=28	=28	=28
2G\]	0r	2e\	0r
4F\	.	2d\	.
4E\	.	.	.
2F\	.	2r	.
2G\	.	[2d\	.
=29.	=29.	=29.	=29.
2E\	0r	4d\]	0r
.	.	4c\	.
2D\	.	4d\	.
.	.	4e\	.
2.A\	.	2.f\	.
4G\	.	4e\	.
=30	=30	=30	=30
4A\	0r	2c\	0r
4B\	.	.	.
1c	.	2e\	.
.	.	1d	.
2B\	.	.	.
=31.	=31.	=31.	=31.
0c	0r	1c	0r
.	.	2r	.
.	.	[2c\	.
=32	=32	=32	=32
0r	0r	2c\]	0r
.	.	2d\	.
.	.	2e\	.
.	.	[2f\	.
=33.	=33.	=33.	=33.
2r	0r	4f\]	0r
.	.	4e\	.
1F	.	2d\	.
.	.	1c	.
2G\	.	.	.
=34	=34	=34	=34
2A\	0r	0f	0r
1B-i	.	.	.
4A\	.	.	.
4G\	.	.	.
=35.	=35.	=35.	=35.
2F\	0r	1f	0r
2A\	.	.	.
1G	.	1e	.
=36	=36	=36	=36
1F	0r	1a	0r
1c	.	2a\	.
.	.	[2g\	.
=37.	=37.	=37.	=37.
2B\	0r	2g\]	0r
2c\	.	2e\	.
2A\	.	2f\	.
2B\	.	2g\	.
=38	=38	=38	=38
2c\	0r	2e\	0r
2F\	.	1a	.
1c	.	.	.
.	.	[2g\	.
=39.	=39.	=39.	=39.
2B\	0r	2g\]	0r
2c\	.	2e\	.
2A\	.	2f\	.
2B\	.	2g\	.
=40	=40	=40	=40
2c\	0r	2.c\	0r
1F	.	.	.
.	.	4e\	.
.	.	2d\	.
2A\	.	[2c\	.
=41.	=41.	=41.	=41.
1G	0r	2c\]	0r
.	.	2B\	.
2F\	.	2A/	.
[2A\	.	[2c\	.
=42	=42	=42	=42
4A\]	0r	4c\]	0r
4G\	.	4B\	.
1F	.	2A/	.
.	.	1G	.
2E\	.	.	.
=43.	=43.	=43.	=43.
1F	0r	2r	0r
.	.	2.c\	.
1r	.	.	.
.	.	4A/	.
.	.	4B\	.
.	.	4c\	.
=44	=44	=44	=44
2r	0r	2d\	0r
2.A\	.	2c\	.
.	.	2.f\	.
4F\	.	.	.
4G\	.	.	.
4A\	.	4e\	.
=45.	=45.	=45.	=45.
2B-i\	0r	2d\	0r
2.A\	.	2c\	.
.	.	2.f\	.
4F\	.	.	.
4G\	.	.	.
4A\	.	4e\	.
=46	=46	=46	=46
2B-i\	0r	2d\	0r
2A\	.	1c	.
2.c\	.	.	.
.	.	2e\	.
4B-i\	.	.	.
=47.	=47.	=47.	=47.
2A\	0r	2f\	0r
2G\	.	1g	.
2.c\	.	.	.
.	.	2e\	.
4B-i\	.	.	.
=48	=48	=48	=48
2A\	0r	2f\	0r
2G\	.	2.g\	.
2.c\	.	.	.
.	.	4f\	.
.	.	4e\	.
4B-i\	.	4d\	.
=49.	=49.	=49.	=49.
2A\	0r	2c\	0r
4G\	.	1f	.
4F\	.	.	.
1G	.	.	.
.	.	2e\	.
=50	=50	=50	=50
0Fl	0r	0fl	0r
!!LO:LB:i:g=z
=51||	=51||	=51||	=51||
*>C	*>C	*>C	*>C
*clefF4	*clefGv2	*clefGv2	*clefG2
*k[]	*k[]	*k[]	*k[]
*M2/1	*M2/1	*M2/1	*M2/1
*met(C2)	*met(C2)	*met(C2)	*met(C2)
!!section: Osanna
!!!OMD: Osanna
0F	[0c	0f	0a
=52.	=52.	=52.	=52.
1F	0c]	1f	1a
[1C	.	1e	1g
=53	=53	=53	=53
2C/]	0c	1.g	1e
2D\	.	.	.
2E\	.	.	2e/
2C/	.	4f\	[2g/
.	.	4e\	.
=54.	=54.	=54.	=54.
[0G	[0B	1d	2g/]
.	.	.	4f/
.	.	.	4e/
.	.	2r	1d
.	.	[2g\	.
=55	=55	=55	=55
0G]	0B]	2g\]	2r
.	.	2g\	1dd
.	.	2d\	.
.	.	[2g\	2dd\
=56.	=56.	=56.	=56.
2r	0B	2g\]	0g
1G	.	4f\	.
.	.	4e\	.
.	.	1d	.
2G\	.	.	.
=57	=57	=57	=57
0C	0c	1e	2r
.	.	.	1cc
.	.	2r	.
.	.	[2g\	2cc\
=58.	=58.	=58.	=58.
2r	[0d	2g\]	2b\
1G	.	2g\	4a/
.	.	.	4g/
.	.	2d\	1b
2G\	.	[2g\	.
=59	=59	=59	=59
1D	0d]	2g\]	1a
.	.	2f#i\	.
[1G	.	1g	1g
=60.	=60.	=60.	=60.
2G\]	[0d	2r	2r
4F\	.	2g\	1dd
4E\	.	.	.
2.D\	.	2f\	.
.	.	[2a\	2dd\
4E\	.	.	.
=61	=61	=61	=61
2F\	0d]	2a\]	2a/
2G\	.	2g\	1dd
2F\	.	2a\	.
2G\	.	2g\	2b\
=62.	=62.	=62.	=62.
2C/	[0c	2e\	4cc\
.	.	.	4b\
1F	.	2c\	4a/
.	.	.	4g/
.	.	1f	1a
4E\	.	.	.
4D\	.	.	.
=63	=63	=63	=63
0C	0c]	0e	2r
.	.	.	1g
.	.	.	2e/
=64.	=64.	=64.	=64.
1r	1A	1r	4f/
.	.	.	4e/
.	.	.	4d/
.	.	.	4c/
1G	1B	1g	1d
=65	=65	=65	=65
2.A\	0c	2e\	1c
.	.	1a	.
4G\	.	.	.
2F\	.	.	1r
2E\	.	[2g\	.
=66.	=66.	=66.	=66.
1D	1F	4g\]	1r
.	.	4f\	.
.	.	1f	.
1C	1G	.	1g
.	.	2e\	.
=67	=67	=67	=67
2r	0F	0f	1a
1c	.	.	.
.	.	.	[1cc
2B\	.	.	.
=68.	=68.	=68.	=68.
2A\	1r	0r	2cc\]
2G\	.	.	2b\
2F\	1c	.	2a/
2E\	.	.	2g/
=69	=69	=69	=69
[0D	[0d	1a	2f/
.	.	.	2e/
.	.	2b-i\	1d
.	.	[2a\	.
=70.	=70.	=70.	=70.
0D]	0d]	2a\]	1r
.	.	1g	.
.	.	.	1a
.	.	2f#i\	.
=71	=71	=71	=71
1G	0d	1g	2b\
.	.	.	2.dd\
1D	.	2r	.
.	.	.	4cc\
.	.	2f\	4b\
.	.	.	4a/
=72.	=72.	=72.	=72.
2E\	0B	2.g\	1g
2.G\	.	.	.
.	.	4f\	.
.	.	2d\	1r
4F\	.	.	.
4E\	.	[2g\	.
4D\	.	.	.
=73	=73	=73	=73
2C/	[0c	2g\]	1r
2F\	.	2.f\	.
1C	.	.	2g/
.	.	4d\	.
.	.	2e\	2g/
=74.	=74.	=74.	=74.
2.c\	0c]	1A	2a/
.	.	.	1cc
4B\	.	.	.
2A\	.	1F	.
2G\	.	.	2b\
=75	=75	=75	=75
2F\	[0f	1c	2a/
2E\	.	.	2g/
[1D	.	[1d	2f/
.	.	.	2e/
=76.	=76.	=76.	=76.
1D]	0f]	2d\]	2d/
.	.	4c\	2.dd\
.	.	4B\	.
1D	.	2A/	.
.	.	.	4cc\
.	.	2d\	2a/
=77	=77	=77	=77
1G	0d	1G	3%2bV
.	.	.	3g/Z
1G	.	1r	3b\V
.	.	.	3cc\
.	.	.	3dd\Z
=78.	=78.	=78.	=78.
3%2EV	0e	3%2GV	1g
3C/Z	.	3c\Z	.
3E\V	.	3G/V	2r
3F\	.	3A/	.
.	.	.	[2g/
3G\Z	.	3B\Z	.
=79	=79	=79	=79
2.C/	1e	2.c\	2g/]
.	.	.	1cc
4D\	.	4B\	.
2E\	1c	2G/	.
[2F\	.	2F/	[2a/
=80.	=80.	=80.	=80.
2F\]	1.f	1A	2a/]
1D	.	.	1dd
.	.	1d	.
[2G\	2d\	.	[2b\
=81	=81	=81	=81
2G\]	1e	1G	2b\]
1C	.	.	2.ee\
.	2.c\	1g	.
.	.	.	4dd\
[2c\	.	.	4cc\
.	4d\	.	4b\
=82.	=82.	=82.	=82.
2c\]	2e\	1a	4a/
.	.	.	4g/
2F\	2f\	.	1cc
1G	1d	1g	.
.	.	.	2b\
=83	=83	=83	=83
2C/	0c	2e\	1cc
2.F\	.	2.a\	.
.	.	.	1r
4G\	.	4g\	.
4A\	.	4f\	.
4B\	.	4e\	.
=84.	=84.	=84.	=84.
2c\	0r	4d\	1r
.	.	4c\	.
2A\	.	1f	.
1G	.	.	1g
.	.	2e\	.
=85	=85	=85	=85
0F	[0c	2f\	2a/
.	.	1a	1cc
.	.	4g\	4b\
.	.	4f\	4a/
=86.	=86.	=86.	=86.
1r	0c]	2e\	2g/
.	.	2.f\	1a
1F	.	.	.
.	.	4g\	.
.	.	4a\	4g/
.	.	4f\	4f/
=87	=87	=87	=87
4C/	[0c	1g	2e/
4D\	.	.	.
4E\	.	.	2g/
4C/	.	.	.
2F\	.	2r	2f/
2E\	.	[2g\	2g/
=88.	=88.	=88.	=88.
1C	0c]	2g\]	1e
.	.	2e\	.
1r	.	2f\	1r
.	.	2g\	.
=89	=89	=89	=89
2r	0c	1e	2r
2E\	.	.	2g/
2F\	.	2r	2f/
2E\	.	[2g\	2g/
=90.	=90.	=90.	=90.
1C	2r	2g\]	2e/
.	2c\	2e\	2g/
2r	2A/	2f\	2a/
2G\	2B\	2g\	2g/
=91	=91	=91	=91
2A\	2.c\	1e	2c/
2.c\	.	.	2g/
.	4B\	.	.
.	4A/	[1f	2a/
4B\	4G/	.	.
4A\	[2F/	.	[2cc\
4G\	.	.	.
=92.	=92.	=92.	=92.
1.F	2F/]	2f\]	4cc\]
.	.	.	4b\
.	2.A/	4e\	4a/
.	.	4d\	4g/
.	.	[1c	2a/
.	4B\	.	.
4E\	[2c\	.	4g/
4D\	.	.	4f/
=93	=93	=93	=93
2E\	4c\]	0c]	2g/
.	4B\	.	.
2F\	2A/	.	1f
1C	1G	.	.
.	.	.	2e/
=94.	=94.	=94.	=94.
[0Fl	[0Fl	1d	[0fl
.	.	1c	.
=95	=95	=95	=95
0F]	0F]	0cl	0f]
!!LO:LB:i:g=z
!!LO:TX:rj:i:Y=40:t=fine
=96||	=96||	=96||	=96||
*>D	*>D	*>D	*>D
*clefF4	*clefGv2	*clefGv2	*clefG2
*k[]	*k[]	*k[]	*k[]
*M2/1	*M2/1	*M2/1	*M2/1
*met(C2)	*met(C2)	*met(C2)	*met(C2)
!!section: Benedictus
!!!OMD: Benedictus
0r	0r	0r	1f
.	.	.	1f
=97.	=97.	=97.	=97.
0r	0r	1c	1a
.	.	1c	1g
=98	=98	=98	=98
0r	0r	0e	2r
.	.	.	1cc
.	.	.	[2b\
=99.	=99.	=99.	=99.
0r	0r	0d	2b\]
.	.	.	4a/
.	.	.	4g/
.	.	.	1a
=100	=100	=100	=100
0r	0r	2r	2r
.	.	1f	1dd
.	.	[2e\	[2cc\
=101.	=101.	=101.	=101.
0r	0r	2e\]	2cc\]
.	.	4d\	4b\
.	.	4c\	4a/
.	.	1d	1b
=102	=102	=102	=102
0r	0r	0c	1cc
.	.	.	2r
.	.	.	2g/
=103.	=103.	=103.	=103.
0r	0r	2r	2a/
.	.	2G/	2b\
.	.	2A/	2cc\
.	.	4B\	2dd\
.	.	4A/	.
=104	=104	=104	=104
0r	0r	4B\	4dd\
.	.	4c\	4cc\
.	.	2d\	4b\
.	.	.	4a/
.	.	2e\	1g
.	.	2c\	.
=105.	=105.	=105.	=105.
0r	0r	2d\	2r
.	.	2e\	2g/
.	.	2f\	2a/
.	.	[2g\	2b\
=106	=106	=106	=106
0r	0r	2g\]	2cc\
.	.	4f\	1dd
.	.	4e\	.
.	.	2d\	.
.	.	[2g\	4cc\
.	.	.	4b\
=107.	=107.	=107.	=107.
0r	0r	2g\]	1a
.	.	2f#i\	.
.	.	1g	2r
.	.	.	[2g/
=108	=108	=108	=108
0r	0r	2r	4g/]
.	.	.	4a/
.	.	2.G/	4b\
.	.	.	4cc\
.	.	.	2dd\
.	.	4A/	.
.	.	4B\	4g/
.	.	4c\	4a/
=109.	=109.	=109.	=109.
0r	0r	2d\	4b\
.	.	.	4cc\
.	.	2G/	2dd\
.	.	4c\	2g/
.	.	4d\	.
.	.	4e\	2cc\
.	.	4f\	.
=110	=110	=110	=110
0r	0r	2g\	2b\
.	.	2c\	2.a/
.	.	4f\	.
.	.	4e\	4g/
.	.	4d\	4f/
.	.	4c\	4e/
=111.	=111.	=111.	=111.
0r	0r	2d\	2f/
.	.	2.c\	2e/
.	.	.	4d/
.	.	4B\	4c/
.	.	2B\	2d/
=112	=112	=112	=112
0r	0r	[0cl	1.e
.	.	.	2c/
=113.	=113.	=113.	=113.
0r	0r	0c]	0cl
!!LO:LB:i:g=z
=114||	=114||	=114||	=114||
*>E	*>E	*>E	*>E
*clefF4	*clefGv2	*clefGv2	*clefG2
*k[]	*k[]	*k[]	*k[]
*M2/1	*M2/1	*M2/1	*M2/1
*met(C2)	*met(C2)	*met(C2)	*met(C2)
!!section: In nomine
!!!OMD: In nomine
1r	1c	0r	0r
[1F	2d\	.	.
.	[2f\	.	.
=115.	=115.	=115.	=115.
1F]	2f\]	0r	0r
.	2e\	.	.
1F	2d\	.	.
.	4c\	.	.
.	4B\	.	.
=116	=116	=116	=116
1F	1A	0r	0r
2G\	2.G/	.	.
[2B-i\	.	.	.
.	4A/	.	.
=117.	=117.	=117.	=117.
4B-\]	4B-i\	0r	0r
4A\	4c\	.	.
4G\	2d\	.	.
4F\	.	.	.
2G\	2G/	.	.
2E\	[2c\	.	.
=118	=118	=118	=118
1D	2c\]	0r	0r
.	2B\	.	.
2C/	1c	.	.
[2F\	.	.	.
=119.	=119.	=119.	=119.
2F\]	1r	0r	0r
2E\	.	.	.
2F\	[1c	.	.
2G\	.	.	.
=120	=120	=120	=120
2A\	1c]	0r	0r
1F	.	.	.
.	[1c	.	.
2E\	.	.	.
=121.	=121.	=121.	=121.
2F\	2c\]	0r	0r
2G\	2B\	.	.
2A\	2c\	.	.
2F\	2d\	.	.
=122	=122	=122	=122
2G\	2e\	0r	0r
1A	4c\	.	.
.	4B\	.	.
.	4c\	.	.
.	4d\	.	.
4G\	4e\	.	.
4F\	4f\	.	.
=123.	=123.	=123.	=123.
2E\	2g\	0r	0r
2F\	1f	.	.
1G	.	.	.
.	2e\	.	.
=124	=124	=124	=124
1F	2.f\	0r	0r
.	4e\	.	.
2r	2d\	.	.
2F\	[2c\	.	.
=125.	=125.	=125.	=125.
2E\	2c\]	0r	0r
1F	4B\	.	.
.	4A/	.	.
.	2G/	.	.
2E\	2c\	.	.
=126	=126	=126	=126
2F\	2A/	0r	0r
2c\	2F/	.	.
2A\	2r	.	.
2F\	[2c\	.	.
=127.	=127.	=127.	=127.
2r	4c\]	0r	0r
.	4B\	.	.
2.c\	4A/	.	.
.	4G/	.	.
.	2F/	.	.
4B\	.	.	.
4A\	[2c\	.	.
4G\	.	.	.
=128	=128	=128	=128
2F\	2c\]	0r	0r
2E\	2c\	.	.
1D	2d\	.	.
.	[2f\	.	.
=129.	=129.	=129.	=129.
1C	2f\]	0r	0r
.	2e\	.	.
2r	1d	.	.
[2F\	.	.	.
=130	=130	=130	=130
2F\]	2c\	0r	0r
2F\	2f\	.	.
2G\	2e\	.	.
[2B-\	[2d\	.	.
=131.	=131.	=131.	=131.
4B-\]	4d\]	0r	0r
4A\	4c\	.	.
4G\	4B\	.	.
4F\	4A/	.	.
2G\	2B\	.	.
[2A\	[2c\	.	.
=132	=132	=132	=132
4A\]	4c\]	0r	0r
4G\	4B\	.	.
1F	2A/	.	.
.	1G	.	.
2E\	.	.	.
=133.	=133.	=133.	=133.
0Fl	0Fl	0r	0r
!!LO:TX:i:Y=40:rj:t=Osanna ut supra
=||	=||	=||	=||
*-	*-	*-	*-
!!!RDF**kern: l=long note in original notation
!!!RDF**kern: i=editorial accidental
!!!RDF**kern: V=start of tuplet marker
!!!RDF**kern: Z=end of tuplet marker
!!!ENC:	Chris Gage 06-24-2013
!!!END:	2013/08/05/
!!!EED:	Jesse Rodin
!!!EEV:	2013/08/06/
!!!ONB:	Translated from MusicXML and edited on 2013/08/06/ by Craig Sapp
!!muse2ps: T^@{OPR}^u^@{ONM}{. }@{OTL}^C^@{COM}^i2I150v85,85,85,150Q8c90
